X: 10
T: The Rakes Of Kildare
R: jig
M: 6/8
L: 1/8
K: Bmin
F | F2B B2c | d2c def | b2f f2e |dBB B2F |
F2B B2c | d2c def | b2f f2e | dBB B2b |
b2b b2b | b2b d'c'b | a2f f2e | f2e dcB|
b2b b2b | b2b d'c'b | a2f f2e |dBB B2 ||


Tune 84	Setting 12587

